vendor/shopware/storefront/Resources/app/storefront/dist/assets/icon/solid/arrow-360-right.svg

<svg xmlns="http://www.w3.org/2000/svg" width="16" height="16" viewBox="0 0 16 16">
  <path fill="#758CA3" fill-rule="evenodd" d="M9.58578644,5 L7.5,5 C5.01471863,5 3,7.01471863 3,9.5 C3,11.9852814 5.01471863,14 7.5,14 C9.98528137,14 12,11.9852814 12,9.5 C12,8.94771525 12.4477153,8.5 13,8.5 C13.5522847,8.5 14,8.94771525 14,9.5 C14,13.0898509 11.0898509,16 7.5,16 C3.91014913,16 1,13.0898509 1,9.5 C1,5.91014913 3.91014913,3 7.5,3 L9.58578644,3 L8.29289322,1.70710678 C7.90236893,1.31658249 7.90236893,0.683417511 8.29289322,0.292893219 C8.68341751,-0.0976310729 9.31658249,-0.0976310729 9.70710678,0.292893219 L12.7071068,3.29289322 C13.0976311,3.68341751 13.0976311,4.31658249 12.7071068,4.70710678 L9.70710678,7.70710678 C9.31658249,8.09763107 8.68341751,8.09763107 8.29289322,7.70710678 C7.90236893,7.31658249 7.90236893,6.68341751 8.29289322,6.29289322 L9.58578644,5 Z"/>
</svg>

<svg xmlns="http://www.w3.org/2000/svg" width="16" height="16" viewBox="0 0 16 16"><path fill="#758CA3" fill-rule="evenodd" d="M9.5858 5H7.5C5.0147 5 3 7.0147 3 9.5S5.0147 14 7.5 14 12 11.9853 12 9.5c0-.5523.4477-1 1-1s1 .4477 1 1c0 3.5899-2.9101 6.5-6.5 6.5S1 13.0899 1 9.5 3.9101 3 7.5 3h2.0858l-1.293-1.2929c-.3904-.3905-.3904-1.0237 0-1.4142.3906-.3905 1.0238-.3905 1.4143 0l3 3c.3905.3905.3905 1.0237 0 1.4142l-3 3c-.3905.3905-1.0237.3905-1.4142 0-.3905-.3905-.3905-1.0237 0-1.4142L9.5858 5z"/></svg>
